svg/u0034_20e3.svg

<svg viewBox="0 0 128 128" xmlns="http://www.w3.org/2000/svg">
  <g>
    <path d="M116.46,3.96h-104c-4.42,0-8,3.58-8,8v104c0,4.42,3.58,8,8,8h104c4.42,0,8-3.58,8-8v-104 C124.46,7.54,120.88,3.96,116.46,3.96z" fill="#427687"/>
    <path d="M122.16,6.26c-1.54-1.46-3.58-2.28-5.7-2.3h-104c-4.42,0-8,3.58-8,8v104 c0.02,2.12,0.84,4.16,2.3,5.7l16.8-16.8h76c3.26-0.01,5.89-2.64,5.9-5.9v-76L122.16,6.26z" fill="#8CAFBF"/>
    <path d="M80.86,73.26h4.9c1.05,0,1.9,0.85,1.9,1.9l0,0v5.5c0,1.05-0.85,1.9-1.9,1.9l0,0h-4.9 c-1.05,0-1.9,0.85-1.9,1.9l0,0v11.6c0,1.05-0.85,1.9-1.9,1.9l0,0h-7.8c-1.05,0-1.9-0.85-1.9-1.9l0,0v-11.7c0-1.05-0.85-1.9-1.9-1.9 l0,0h-26.1c-0.99-0.04-1.8-0.81-1.9-1.8l-0.2-4.6c-0.01-0.39,0.1-0.77,0.3-1.1l28.9-45.3c0.34-0.56,0.95-0.9,1.6-0.9h9 c1.05,0,1.9,0.85,1.9,1.9v0v40.7C79.01,72.39,79.83,73.21,80.86,73.26z M52.76,73.26h12.8c1.05,0,1.9-0.85,1.9-1.9l0,0v-27 l-0.9,1.5l-15.4,24.5c-0.53,0.93-0.21,2.12,0.72,2.65C52.15,73.16,52.45,73.25,52.76,73.26z" fill="#FAFAFA"/>
    <path d="M40.16,12.86c0-2.3-1.6-3-10.8-2.7c-7.7,0.3-11.5,1.2-13.8,4 s-2.9,8.5-3,15.3c0,4.8,0,9.3,2.5,9.3c3.4,0,3.4-7.9,6.2-12.3C26.66,17.76,40.16,15.86,40.16,12.86z" opacity="0.5" fill="#B4E1ED" enable-background="new "/>
  </g>
</svg>

<svg viewBox="0 0 128 128" xmlns="http://www.w3.org/2000/svg">
  <defs/>
  <path d="M116.46,3.96 L12.46,3.96 C8.04,3.96 4.46,7.54 4.46,11.96 L4.46,115.96 C4.46,120.38 8.04,123.96 12.46,123.96 L116.46,123.96 C120.88,123.96 124.46,120.38 124.46,115.96 L124.46,11.96 C124.46,7.54 120.88,3.96 116.46,3.96 Z" fill="#427687"/>
  <path d="M122.16,6.26 C120.62,4.8 118.58,3.98 116.46,3.96 L12.46,3.96 C8.04,3.96 4.46,7.54 4.46,11.96 L4.46,115.96 C4.48,118.08 5.3,120.12 6.76,121.66 L23.56,104.86 L99.56,104.86 C102.82,104.85 105.45,102.22 105.46,98.96 L105.46,22.96 L122.16,6.26 Z" fill="#8CAFBF"/>
  <path d="M80.86,73.26 L85.76,73.26 C86.81,73.26 87.66,74.11 87.66,75.16 L87.66,75.16 L87.66,80.66 C87.66,81.71 86.81,82.56 85.76,82.56 L85.76,82.56 L80.86,82.56 C79.81,82.56 78.96,83.41 78.96,84.46 L78.96,84.46 L78.96,96.06 C78.96,97.11 78.11,97.96 77.06,97.96 L77.06,97.96 L69.26,97.96 C68.21,97.96 67.36,97.11 67.36,96.06 L67.36,96.06 L67.36,84.36 C67.36,83.31 66.51,82.46 65.46,82.46 L65.46,82.46 L39.36,82.46 C38.37,82.42 37.56,81.65 37.46,80.66 L37.26,76.06 C37.25,75.67 37.36,75.29 37.56,74.96 L66.46,29.66 C66.8,29.1 67.41,28.76 68.06,28.76 L77.06,28.76 C78.11,28.76 78.96,29.61 78.96,30.66 L78.96,30.66 L78.96,71.36 C79.01,72.39 79.83,73.21 80.86,73.26 Z M52.76,73.26 L65.56,73.26 C66.61,73.26 67.46,72.41 67.46,71.36 L67.46,71.36 L67.46,44.36 L66.56,45.86 L51.16,70.36 C50.63,71.29 50.95,72.48 51.88,73.01 C52.15,73.16 52.45,73.25 52.76,73.26 Z" fill="#FAFAFA"/>
  <path d="M40.16,12.86 C40.16,10.56 38.56,9.86 29.36,10.16 C21.66,10.46 17.86,11.36 15.56,14.16 C13.26,16.96 12.66,22.66 12.56,29.46 C12.56,34.26 12.56,38.76 15.06,38.76 C18.46,38.76 18.46,30.86 21.26,26.46 C26.66,17.76 40.16,15.86 40.16,12.86 Z" fill="#B4E1ED" opacity="0.5"/>
</svg>
